view/frontend/web/svg/outline/blur.svg

<svg xmlns="http://www.w3.org/2000/svg" width="24" height="24" viewBox="0 0 24 24"><!--Boxicons v3.0.8 https://boxicons.com | License  https://docs.boxicons.com/free--><path d="M12 10a2 2 0 1 0 0 4 2 2 0 1 0 0-4m0-4.5a1.5 1.5 0 1 0 0 3 1.5 1.5 0 1 0 0-3m0 10a1.5 1.5 0 1 0 0 3 1.5 1.5 0 1 0 0-3m5-5a1.5 1.5 0 1 0 0 3 1.5 1.5 0 1 0 0-3m-10 0a1.5 1.5 0 1 0 0 3 1.5 1.5 0 1 0 0-3M12 2a1 1 0 1 0 0 2 1 1 0 1 0 0-2m0 18a1 1 0 1 0 0 2 1 1 0 1 0 0-2m9-9a1 1 0 1 0 0 2 1 1 0 1 0 0-2M3 11a1 1 0 1 0 0 2 1 1 0 1 0 0-2m13-4c0-.55.45-1 1-1s1 .45 1 1-.45 1-1 1-1-.45-1-1m-9 9a1 1 0 1 0 0 2 1 1 0 1 0 0-2m10 0a1 1 0 1 0 0 2 1 1 0 1 0 0-2M7 6a1 1 0 1 0 0 2 1 1 0 1 0 0-2m.5-3a.5.5 0 1 0 0 1 .5.5 0 1 0 0-1m-4 4a.5.5 0 1 0 0 1 .5.5 0 1 0 0-1m17 0a.5.5 0 1 0 0 1 .5.5 0 1 0 0-1m-4-4a.5.5 0 1 0 0 1 .5.5 0 1 0 0-1m0 17a.5.5 0 1 0 0 1 .5.5 0 1 0 0-1m4-4a.5.5 0 1 0 0 1 .5.5 0 1 0 0-1m-17 0a.5.5 0 1 0 0 1 .5.5 0 1 0 0-1m4 4a.5.5 0 1 0 0 1 .5.5 0 1 0 0-1"/></svg>

<svg xmlns="http://www.w3.org/2000/svg" width="24" height="24"><!--Boxicons v3.0 https://boxicons.com | License  https://docs.boxicons.com/free--><path d="M12 10a2 2 0 1 0 0 4 2 2 0 1 0 0-4M12 5.5a1.5 1.5 0 1 0 0 3 1.5 1.5 0 1 0 0-3M12 15.5a1.5 1.5 0 1 0 0 3 1.5 1.5 0 1 0 0-3M17 10.5a1.5 1.5 0 1 0 0 3 1.5 1.5 0 1 0 0-3M7 10.5a1.5 1.5 0 1 0 0 3 1.5 1.5 0 1 0 0-3M12 2a1 1 0 1 0 0 2 1 1 0 1 0 0-2M12 20a1 1 0 1 0 0 2 1 1 0 1 0 0-2M21 11a1 1 0 1 0 0 2 1 1 0 1 0 0-2M3 11a1 1 0 1 0 0 2 1 1 0 1 0 0-2M16 7c0-.55.45-1 1-1s1 .45 1 1-.45 1-1 1-1-.45-1-1M7 16a1 1 0 1 0 0 2 1 1 0 1 0 0-2M17 16a1 1 0 1 0 0 2 1 1 0 1 0 0-2M7 6a1 1 0 1 0 0 2 1 1 0 1 0 0-2M7.5 3a.5.5 0 1 0 0 1 .5.5 0 1 0 0-1M3.5 7a.5.5 0 1 0 0 1 .5.5 0 1 0 0-1M20.5 7a.5.5 0 1 0 0 1 .5.5 0 1 0 0-1M16.5 3a.5.5 0 1 0 0 1 .5.5 0 1 0 0-1M16.5 20a.5.5 0 1 0 0 1 .5.5 0 1 0 0-1M20.5 16a.5.5 0 1 0 0 1 .5.5 0 1 0 0-1M3.5 16a.5.5 0 1 0 0 1 .5.5 0 1 0 0-1M7.5 20a.5.5 0 1 0 0 1 .5.5 0 1 0 0-1"/></svg>
